icons/hardhat.svg

<svg width="16" height="16" viewBox="0 0 16 16" fill="none" xmlns="http://www.w3.org/2000/svg">
<path fill-rule="evenodd" clip-rule="evenodd" d="M8 3.5C6.63396 3.5 6.20095 3.7448 6.0637 4.30279C4.26384 4.93769 3 6.64453 3 10.1036C3 10.4616 3.02055 10.7573 3.0606 11H2.5V12C2.5 12.5523 4.68629 13 8 13C11.3137 13 13.5 12.5523 13.5 12L13.5 11H12.9132C12.97 10.7573 13 10.4616 13 10.1036C13 6.64453 11.7362 4.93769 9.9363 4.30279C9.79905 3.7448 9.36604 3.5 8 3.5ZM6.25 7.33333L8 5L9.75 7.33333L8 9.08333L6.25 7.33333ZM8 10.25L6.25 8.5L8 12L9.75 8.5L8 10.25Z" fill="#EEA230"/>
</svg>

<svg xmlns="http://www.w3.org/2000/svg" width="16" height="16" fill="none"><path fill="#EEA230" fill-rule="evenodd" d="M8 3.5c-1.366 0-1.8.245-1.936.803C4.264 4.938 3 6.645 3 10.103c0 .359.02.654.06.897H2.5v1c0 .552 2.186 1 5.5 1s5.5-.448 5.5-1v-1h-.587c.057-.243.087-.538.087-.896 0-3.46-1.264-5.166-3.064-5.801C9.8 3.745 9.366 3.5 8 3.5ZM6.25 7.333 8 5l1.75 2.333L8 9.083l-1.75-1.75ZM8 10.25 6.25 8.5 8 12l1.75-3.5L8 10.25Z" clip-rule="evenodd"/></svg>
